Origami/48x48/apps/full-throttle-remastered.svg

<svg width="48" height="48" version="1" xmlns="http://www.w3.org/2000/svg">
 <rect transform="matrix(0,-1,-1,0,0,0)" x="-44" y="-44" width="40" height="40" rx="2" ry="2" style="fill:#8a4b2c"/>
 <path d="m4 7v-1c0-1.108 0.892-2 2-2h36c1.108 0 2 0.892 2 2v1c0-1.108-0.892-2-2-2h-36c-1.108 0-2 0.892-2 2z" fill="#fff" style="opacity:.1"/>
 <path d="m4 42v1c0 1.108 0.892 2 2 2h36c1.108 0 2-0.892 2-2v-1c0 1.108-0.892 2-2 2h-36c-1.108 0-2-0.892-2-2z" opacity=".2"/>
 <path d="m14.457418 41.897932c0.022-0.05687 0.08573-0.450099 0.141619-0.87384 0.335386-2.543052 0.311842-4.314962 0.973159-5.401484 0.121818-0.200143 0.468383-0.64274 0.77014-0.983549 0.301757-0.340808 0.548648-0.554099 0.548648-0.595798 0-0.05234-0.08755-0.06179-0.282636-0.03053-0.932501 0.149432-1.22121-0.02013-1.477425-0.457347-0.132786-0.22659-0.135599 0.06463-0.153335-5.528718-0.02038-6.427032-0.07253-5.810931 0.516839-6.106758 0.426342-0.214004 0.957344-0.546601 1.427146-0.621632 0.799928-0.127754 1.342876 0.465483 1.739519 1.239097 0.108645 0.211899 0.232479 0.371829 0.276618 0.357247 0.126049-0.04164 0.149105-5.829322 0.02325-5.829322-0.05034 0-0.145148 0.139228-0.210681 0.309395-0.166409 0.432121-0.557345 1.42758-1.024161 1.635334-0.487718 0.217058-2.041146 0.766096-2.36532 0.766096-0.131337 0-0.274702-0.03561-0.318596-0.07914-0.06038-0.05988-0.07956-1.07531-0.07878-4.171348 6.65e-4 -2.250715 0.02405-4.128154 0.0522-4.172088 0.250043-0.390188 3.580469-0.551745 4.935741-0.250067 0.274323 0.06106 0.73818 0.225163 1.030792 0.364666 0.759954 0.362312 1.236911 0.462466 1.757608 1.444385 0.02886 0.05441 0.09409 0.09893 0.144961 0.09893 0.07711 0 0.0956-0.02764 0.111021-2.171581 0.01017-1.4146316 0.0015-2.6414505-0.01938-2.7262651-0.03201-0.1303512-0.05372-0.1411643-0.140313-0.069896-0.691696 0.8063697-0.452622 0.552229-0.691696 0.8063697l-0.208134 0.1736785-1.275078-0.022541c-0.701183-0.012396-3.3421 3.298e-4 -5.868472-0.00246-2.526372-0.00277-5.6457707 0.039201-5.7071864 0.062573-0.2238404 0.08518 6.963e-4 0.2269107 0.5705639 0.5365639 0.9825715 0.5339153 2.0461325 1.3903103 2.2852635 2.2810883 0.139968 0.521417 0.134934 7.487632-0.0058 8.079768-0.13635 0.5735-0.165307 0.992039-0.595466 1.452801-0.202142 0.216525-0.367535 0.420407-0.367535 0.453071 0 0.03266 0.166264 0.221601 0.369477 0.419861 0.407881 0.397945 0.513542 0.87958 0.615205 1.283775 0.09664 0.384234 0.171655 11.600925 0.08172 12.219661-0.08953 0.615899-0.20076 1.022779-0.711893 1.564646-0.478029 0.506766-0.478315 0.505871 0.253249 0.782323 0.597035 0.225616 1.432811 0.592713 1.660177 0.932955 0.236544 0.353967 0.545336 1.157657 0.797706 2.076136 0.114612 0.417135 0.221882 0.780685 0.238374 0.807889 0.04983 0.0822 0.138465 0.05577 0.18092-0.05394z" style="opacity:.2"/>
 <path d="m14.457418 40.897936c0.022-0.05687 0.08573-0.450099 0.141619-0.87384 0.335386-2.543052 0.311842-4.314962 0.973159-5.401484 0.121818-0.200143 0.468383-0.64274 0.77014-0.983549 0.301757-0.340808 0.548648-0.554099 0.548648-0.595798 0-0.05234-0.08755-0.06179-0.282636-0.03053-0.932501 0.149432-1.22121-0.02013-1.477425-0.457347-0.132786-0.22659-0.135599 0.06463-0.153335-5.528718-0.02038-6.427032-0.07253-5.810931 0.516839-6.106758 0.426342-0.214004 0.957344-0.546601 1.427146-0.621632 0.799928-0.127754 1.342876 0.465483 1.739519 1.239097 0.108645 0.211899 0.232479 0.371829 0.276618 0.357247 0.126049-0.04164 0.149105-5.829322 0.02325-5.829322-0.05034 0-0.145148 0.139228-0.210681 0.309395-0.166409 0.432121-0.557345 1.42758-1.024161 1.635334-0.487718 0.217058-2.041146 0.766096-2.36532 0.766096-0.131337 0-0.274702-0.03561-0.318596-0.07914-0.06038-0.05988-0.07956-1.07531-0.07878-4.171348 6.65e-4 -2.250715 0.02405-4.128154 0.0522-4.172088 0.250043-0.3901878 3.580469-0.5517446 4.935741-0.250067 0.274323 0.06106 0.73818 0.225163 1.030792 0.364666 0.759954 0.362312 1.236911 0.462466 1.757608 1.444385 0.02886 0.05441 0.09409 0.09893 0.144961 0.09893 0.07711 0 0.0956-0.02764 0.111021-2.1715813 0.01017-1.4146311 0.0015-2.64145-0.01938-2.7262646-0.03201-0.1303512-0.05372-0.1411643-0.140313-0.069896-0.691696 0.8063697-0.452622 0.552229-0.691696 0.8063697l-0.208134 0.1736785-1.275078-0.0225413c-0.701183-0.012396-3.3421 3.298e-4 -5.868472-0.00246-2.526372-0.00277-5.6457707 0.039201-5.7071864 0.062573-0.2238404 0.08518 6.963e-4 0.2269107 0.5705639 0.5365639 0.9825715 0.5339155 2.0461325 1.3903099 2.2852635 2.2810881 0.139968 0.521417 0.134934 7.487632-0.0058 8.079768-0.13635 0.5735-0.165307 0.992039-0.595466 1.452801-0.202142 0.216525-0.367535 0.420407-0.367535 0.453071 0 0.03266 0.166264 0.221601 0.369477 0.419861 0.407881 0.397945 0.513542 0.87958 0.615205 1.283775 0.09664 0.384234 0.171655 11.600925 0.08172 12.219661-0.08953 0.615899-0.20076 1.022779-0.711893 1.564646-0.478029 0.506766-0.478315 0.505871 0.253249 0.782323 0.597035 0.225616 1.432811 0.592713 1.660177 0.932955 0.236544 0.353967 0.545336 1.157657 0.797706 2.076136 0.114612 0.417135 0.221882 0.780685 0.238374 0.807889 0.04983 0.0822 0.138465 0.05577 0.18092-0.05394z" style="fill:#fbb64a"/>
 <path d="m26.076172 10.999996c-0.07046 0.04321-0.08502 0.759878-0.07031 2.609375 0.02139 2.689297 0.03585 2.748501 0.482422 1.972656 0.309077-0.536972 0.886203-1.416603 1.337891-1.582031 0.262842-0.09626 0.633769 0.01388 1.599609-0.0098 1.104261-0.02703 1.371966-0.01589 1.476563 0.08789 0.10703 0.106192 0.207651 0.596164 0.117187 3.060547v2.74414l-0.171875 0.365235c-0.0941 0.200515-0.385893 0.491146-0.527344 0.646484-0.141445 0.155338-0.257812 0.322451-0.257812 0.371094 0 0.04864 0.10274 0.203831 0.226562 0.34375 0.123824 0.13992 0.407487 0.430127 0.509766 0.646484l0.185547 0.394532 0.02148 6.292968c0.01959 6.250791 0.01727 6.295771-0.126953 6.419922-0.07987 0.06876-0.313299 0.176944-0.519531 0.240235-0.206226 0.06329-0.375 0.154466-0.375 0.201172 0 0.0467 0.233282 0.181069 0.517578 0.298828 0.39312 0.162837 0.599095 0.303041 0.863281 0.589843 0.319608 0.346958 0.753507 1.253443 0.878907 1.66211 0.101025 0.329235 0.198863 0.644531 0.255859 0.644531 0.057 0 0.154834-0.315296 0.255859-0.644531 0.1254-0.408667 0.559299-1.315152 0.878907-1.66211 0.264186-0.286802 0.470161-0.427006 0.863281-0.589843 0.284296-0.117759 0.517578-0.252128 0.517578-0.298828 0-0.04671-0.168774-0.137882-0.375-0.201172-0.206232-0.06329-0.439661-0.171475-0.519531-0.240235-0.144221-0.124151-0.146543-0.169131-0.126953-6.419922l0.02148-6.292968 0.185547-0.394532c0.102279-0.216357 0.385942-0.506564 0.509766-0.646484 0.123821-0.139919 0.226562-0.29511 0.226562-0.34375s-0.116368-0.215756-0.257812-0.371094c-0.141452-0.155338-0.433244-0.445969-0.527344-0.646484l-0.171875-0.365235v-2.74414c-0.09046-2.464383 0.01016-2.954355 0.117187-3.060547 0.104597-0.10378 0.372302-0.114921 1.476563-0.08789 0.96584 0.02365 1.336767-0.08649 1.599609 0.0098 0.451688 0.165428 1.028814 1.045059 1.337891 1.582031 0.446568 0.775845 0.461032 0.716641 0.482422-1.972656 0.01471-1.849497 1.47e-4 -2.566165-0.07031-2.609375-0.0576-0.03532-0.19457 0.226397-0.376953 0.400391-0.157309 0.150065-0.355516 0.509164-0.441406 0.552734-0.107876 0.0547-2.873442 0.04619-5.605469 0.04687-2.732027-6.85e-4 -5.497593 0.0078-5.605469-0.04687-0.08589-0.04357-0.284097-0.402669-0.441406-0.552734-0.182383-0.173994-0.319356-0.435708-0.376953-0.400391z" style="opacity:.2"/>
 <path d="m26.076172 10c-0.07046 0.04321-0.085023 0.759878-0.070313 2.609375 0.02139 2.689297 0.035854 2.748501 0.482422 1.972656 0.309077-0.536972 0.886203-1.416603 1.337891-1.582031 0.262842-0.09626 0.633769 0.013884 1.599609-0.009766 1.104261-0.02703 1.371966-0.015889 1.476563 0.087891 0.10703 0.106192 0.207651 0.596164 0.117187 3.060547v2.74414l-0.171875 0.365235c-0.0941 0.200515-0.385893 0.491146-0.527344 0.646484-0.141445 0.155338-0.257812 0.322451-0.257812 0.371094 0 0.04864 0.10274 0.203831 0.226562 0.34375 0.123824 0.13992 0.407487 0.430127 0.509766 0.646484l0.185547 0.394532 0.021484 6.292968c0.01959 6.250791 0.017268 6.295771-0.126953 6.419922-0.07987 0.06876-0.313299 0.176944-0.519531 0.240235-0.206226 0.06329-0.375 0.154466-0.375 0.201172 0 0.0467 0.233282 0.181069 0.517578 0.298828 0.39312 0.162837 0.599095 0.303041 0.863281 0.589843 0.319608 0.346958 0.753507 1.253443 0.878907 1.66211 0.101025 0.329235 0.198863 0.644531 0.255859 0.644531s0.154834-0.315296 0.255859-0.644531c0.1254-0.408667 0.559299-1.315152 0.878907-1.66211 0.264186-0.286802 0.470161-0.427006 0.863281-0.589843 0.284296-0.117759 0.517578-0.252128 0.517578-0.298828 0-0.046706-0.168774-0.137882-0.375-0.201172-0.206232-0.063291-0.439661-0.171475-0.519531-0.240235-0.144221-0.124151-0.146543-0.169131-0.126953-6.419922l0.021484-6.292968 0.185547-0.394532c0.102279-0.216357 0.385942-0.506564 0.509766-0.646484 0.123821-0.139919 0.226562-0.29511 0.226562-0.34375 0-0.048643-0.116368-0.215756-0.257812-0.371094-0.141452-0.155338-0.433244-0.445969-0.527344-0.646484l-0.171875-0.365235v-2.74414c-0.090464-2.464383 0.010157-2.954355 0.117187-3.060547 0.104597-0.10378 0.372302-0.114921 1.476563-0.087891 0.96584 0.02365 1.336767-0.086494 1.599609 0.009766 0.451688 0.165428 1.028814 1.045059 1.337891 1.582031 0.446568 0.775845 0.461032 0.716641 0.482422-1.972656 0.01471-1.849497 1.47e-4 -2.566165-0.070313-2.609375-0.057597-0.035317-0.19457 0.226397-0.376953 0.400391-0.157309 0.150065-0.355516 0.509164-0.441406 0.552734-0.107876 0.0547-2.873442 0.04619-5.605469 0.046875-2.732027-6.85e-4 -5.497593 0.007825-5.605469-0.046875-0.08589-0.04357-0.284097-0.402669-0.441406-0.552734-0.182383-0.173994-0.319356-0.435708-0.376953-0.400391z" style="fill:#fbb64a"/>
</svg>

<svg xmlns="http://www.w3.org/2000/svg" width="48" height="48" version="1">
 <rect style="fill:#8a4b2c" width="40" height="40" x="-44" y="-44" rx="2" ry="2" transform="matrix(0,-1,-1,0,0,0)"/>
 <path fill="#fff" style="opacity:0.1" d="m4 7v-1c0-1.108 0.892-2 2-2h36c1.108 0 2 0.892 2 2v1c0-1.108-0.892-2-2-2h-36c-1.108 0-2 0.892-2 2z"/>
 <path opacity=".2" d="m4 42v1c0 1.108 0.892 2 2 2h36c1.108 0 2-0.892 2-2v-1c0 1.108-0.892 2-2 2h-36c-1.108 0-2-0.892-2-2z"/>
 <path style="opacity:0.2" d="m 14.457418,41.897932 c 0.022,-0.05687 0.08573,-0.450099 0.141619,-0.87384 0.335386,-2.543052 0.311842,-4.314962 0.973159,-5.401484 0.121818,-0.200143 0.468383,-0.64274 0.77014,-0.983549 0.301757,-0.340808 0.548648,-0.554099 0.548648,-0.595798 0,-0.05234 -0.08755,-0.06179 -0.282636,-0.03053 -0.932501,0.149432 -1.22121,-0.02013 -1.477425,-0.457347 -0.132786,-0.22659 -0.135599,0.06463 -0.153335,-5.528718 -0.02038,-6.427032 -0.07253,-5.810931 0.516839,-6.106758 0.426342,-0.214004 0.957344,-0.546601 1.427146,-0.621632 0.799928,-0.127754 1.342876,0.465483 1.739519,1.239097 0.108645,0.211899 0.232479,0.371829 0.276618,0.357247 0.126049,-0.04164 0.149105,-5.829322 0.02325,-5.829322 -0.05034,0 -0.145148,0.139228 -0.210681,0.309395 -0.166409,0.432121 -0.557345,1.42758 -1.024161,1.635334 -0.487718,0.217058 -2.041146,0.766096 -2.36532,0.766096 -0.131337,0 -0.274702,-0.03561 -0.318596,-0.07914 -0.06038,-0.05988 -0.07956,-1.07531 -0.07878,-4.171348 6.65e-4,-2.250715 0.02405,-4.128154 0.0522,-4.172088 0.250043,-0.390188 3.580469,-0.551745 4.935741,-0.250067 0.274323,0.06106 0.73818,0.225163 1.030792,0.364666 0.759954,0.362312 1.236911,0.462466 1.757608,1.444385 0.02886,0.05441 0.09409,0.09893 0.144961,0.09893 0.07711,0 0.0956,-0.02764 0.111021,-2.171581 0.01017,-1.4146316 0.0015,-2.6414505 -0.01938,-2.7262651 -0.03201,-0.1303512 -0.05372,-0.1411643 -0.140313,-0.069896 -0.691696,0.8063697 -0.452622,0.552229 -0.691696,0.8063697 l -0.208134,0.1736785 -1.275078,-0.022541 c -0.701183,-0.012396 -3.3421,3.298e-4 -5.868472,-0.00246 -2.526372,-0.00277 -5.6457707,0.039201 -5.7071864,0.062573 -0.2238404,0.08518 6.963e-4,0.2269107 0.5705639,0.5365639 0.9825715,0.5339153 2.0461325,1.3903103 2.2852635,2.2810883 0.139968,0.521417 0.134934,7.487632 -0.0058,8.079768 -0.13635,0.5735 -0.165307,0.992039 -0.595466,1.452801 -0.202142,0.216525 -0.367535,0.420407 -0.367535,0.453071 0,0.03266 0.166264,0.221601 0.369477,0.419861 0.407881,0.397945 0.513542,0.87958 0.615205,1.283775 0.09664,0.384234 0.171655,11.600925 0.08172,12.219661 -0.08953,0.615899 -0.20076,1.022779 -0.711893,1.564646 -0.478029,0.506766 -0.478315,0.505871 0.253249,0.782323 0.597035,0.225616 1.432811,0.592713 1.660177,0.932955 0.236544,0.353967 0.545336,1.157657 0.797706,2.076136 0.114612,0.417135 0.221882,0.780685 0.238374,0.807889 0.04983,0.0822 0.138465,0.05577 0.18092,-0.05394 z"/>
 <path style="fill:#fbb64a" d="m 14.457418,40.897936 c 0.022,-0.05687 0.08573,-0.450099 0.141619,-0.87384 0.335386,-2.543052 0.311842,-4.314962 0.973159,-5.401484 0.121818,-0.200143 0.468383,-0.64274 0.77014,-0.983549 0.301757,-0.340808 0.548648,-0.554099 0.548648,-0.595798 0,-0.05234 -0.08755,-0.06179 -0.282636,-0.03053 -0.932501,0.149432 -1.22121,-0.02013 -1.477425,-0.457347 -0.132786,-0.22659 -0.135599,0.06463 -0.153335,-5.528718 -0.02038,-6.427032 -0.07253,-5.810931 0.516839,-6.106758 0.426342,-0.214004 0.957344,-0.546601 1.427146,-0.621632 0.799928,-0.127754 1.342876,0.465483 1.739519,1.239097 0.108645,0.211899 0.232479,0.371829 0.276618,0.357247 0.126049,-0.04164 0.149105,-5.829322 0.02325,-5.829322 -0.05034,0 -0.145148,0.139228 -0.210681,0.309395 -0.166409,0.432121 -0.557345,1.42758 -1.024161,1.635334 -0.487718,0.217058 -2.041146,0.766096 -2.36532,0.766096 -0.131337,0 -0.274702,-0.03561 -0.318596,-0.07914 -0.06038,-0.05988 -0.07956,-1.07531 -0.07878,-4.171348 6.65e-4,-2.250715 0.02405,-4.128154 0.0522,-4.172088 0.250043,-0.3901878 3.580469,-0.5517446 4.935741,-0.250067 0.274323,0.06106 0.73818,0.225163 1.030792,0.364666 0.759954,0.362312 1.236911,0.462466 1.757608,1.444385 0.02886,0.05441 0.09409,0.09893 0.144961,0.09893 0.07711,0 0.0956,-0.02764 0.111021,-2.1715813 0.01017,-1.4146311 0.0015,-2.64145 -0.01938,-2.7262646 -0.03201,-0.1303512 -0.05372,-0.1411643 -0.140313,-0.069896 -0.691696,0.8063697 -0.452622,0.552229 -0.691696,0.8063697 L 21.936222,8.0237713 20.661144,8.00123 C 19.959961,7.988834 17.319044,8.0015598 14.792672,7.99877 12.2663,7.996 9.1469013,8.037971 9.0854856,8.061343 c -0.2238404,0.08518 6.963e-4,0.2269107 0.5705639,0.5365639 0.9825715,0.5339155 2.0461325,1.3903099 2.2852635,2.2810881 0.139968,0.521417 0.134934,7.487632 -0.0058,8.079768 -0.13635,0.5735 -0.165307,0.992039 -0.595466,1.452801 -0.202142,0.216525 -0.367535,0.420407 -0.367535,0.453071 0,0.03266 0.166264,0.221601 0.369477,0.419861 0.407881,0.397945 0.513542,0.87958 0.615205,1.283775 0.09664,0.384234 0.171655,11.600925 0.08172,12.219661 -0.08953,0.615899 -0.20076,1.022779 -0.711893,1.564646 -0.478029,0.506766 -0.478315,0.505871 0.253249,0.782323 0.597035,0.225616 1.432811,0.592713 1.660177,0.932955 0.236544,0.353967 0.545336,1.157657 0.797706,2.076136 0.114612,0.417135 0.221882,0.780685 0.238374,0.807889 0.04983,0.0822 0.138465,0.05577 0.18092,-0.05394 z"/>
 <path style="opacity:0.2" d="m 26.076172,10.999996 c -0.07046,0.04321 -0.08502,0.759878 -0.07031,2.609375 0.02139,2.689297 0.03585,2.748501 0.482422,1.972656 0.309077,-0.536972 0.886203,-1.416603 1.337891,-1.582031 0.262842,-0.09626 0.633769,0.01388 1.599609,-0.0098 1.104261,-0.02703 1.371966,-0.01589 1.476563,0.08789 0.10703,0.106192 0.207651,0.596164 0.117187,3.060547 l 0,2.74414 -0.171875,0.365235 c -0.0941,0.200515 -0.385893,0.491146 -0.527344,0.646484 -0.141445,0.155338 -0.257812,0.322451 -0.257812,0.371094 0,0.04864 0.10274,0.203831 0.226562,0.34375 0.123824,0.13992 0.407487,0.430127 0.509766,0.646484 l 0.185547,0.394532 0.02148,6.292968 c 0.01959,6.250791 0.01727,6.295771 -0.126953,6.419922 -0.07987,0.06876 -0.313299,0.176944 -0.519531,0.240235 -0.206226,0.06329 -0.375,0.154466 -0.375,0.201172 0,0.0467 0.233282,0.181069 0.517578,0.298828 0.39312,0.162837 0.599095,0.303041 0.863281,0.589843 0.319608,0.346958 0.753507,1.253443 0.878907,1.66211 0.101025,0.329235 0.198863,0.644531 0.255859,0.644531 0.057,0 0.154834,-0.315296 0.255859,-0.644531 0.1254,-0.408667 0.559299,-1.315152 0.878907,-1.66211 0.264186,-0.286802 0.470161,-0.427006 0.863281,-0.589843 0.284296,-0.117759 0.517578,-0.252128 0.517578,-0.298828 0,-0.04671 -0.168774,-0.137882 -0.375,-0.201172 -0.206232,-0.06329 -0.439661,-0.171475 -0.519531,-0.240235 -0.144221,-0.124151 -0.146543,-0.169131 -0.126953,-6.419922 l 0.02148,-6.292968 0.185547,-0.394532 c 0.102279,-0.216357 0.385942,-0.506564 0.509766,-0.646484 0.123821,-0.139919 0.226562,-0.29511 0.226562,-0.34375 0,-0.04864 -0.116368,-0.215756 -0.257812,-0.371094 -0.141452,-0.155338 -0.433244,-0.445969 -0.527344,-0.646484 l -0.171875,-0.365235 0,-2.74414 c -0.09046,-2.464383 0.01016,-2.954355 0.117187,-3.060547 0.104597,-0.10378 0.372302,-0.114921 1.476563,-0.08789 0.96584,0.02365 1.336767,-0.08649 1.599609,0.0098 0.451688,0.165428 1.028814,1.045059 1.337891,1.582031 0.446568,0.775845 0.461032,0.716641 0.482422,-1.972656 0.01471,-1.849497 1.47e-4,-2.566165 -0.07031,-2.609375 -0.0576,-0.03532 -0.19457,0.226397 -0.376953,0.400391 -0.157309,0.150065 -0.355516,0.509164 -0.441406,0.552734 -0.107876,0.0547 -2.873442,0.04619 -5.605469,0.04687 -2.732027,-6.85e-4 -5.497593,0.0078 -5.605469,-0.04687 -0.08589,-0.04357 -0.284097,-0.402669 -0.441406,-0.552734 -0.182383,-0.173994 -0.319356,-0.435708 -0.376953,-0.400391 z"/>
 <path style="fill:#fbb64a" d="M 26.076172 10 C 26.005712 10.04321 25.991149 10.759878 26.005859 12.609375 C 26.027249 15.298672 26.041713 15.357876 26.488281 14.582031 C 26.797358 14.045059 27.374484 13.165428 27.826172 13 C 28.089014 12.90374 28.459941 13.013884 29.425781 12.990234 C 30.530042 12.963204 30.797747 12.974345 30.902344 13.078125 C 31.009374 13.184317 31.109995 13.674289 31.019531 16.138672 L 31.019531 18.882812 L 30.847656 19.248047 C 30.753556 19.448562 30.461763 19.739193 30.320312 19.894531 C 30.178867 20.049869 30.0625 20.216982 30.0625 20.265625 C 30.0625 20.314265 30.16524 20.469456 30.289062 20.609375 C 30.412886 20.749295 30.696549 21.039502 30.798828 21.255859 L 30.984375 21.650391 L 31.005859 27.943359 C 31.025449 34.19415 31.023127 34.23913 30.878906 34.363281 C 30.799036 34.432041 30.565607 34.540225 30.359375 34.603516 C 30.153149 34.666806 29.984375 34.757982 29.984375 34.804688 C 29.984375 34.851388 30.217657 34.985757 30.501953 35.103516 C 30.895073 35.266353 31.101048 35.406557 31.365234 35.693359 C 31.684842 36.040317 32.118741 36.946802 32.244141 37.355469 C 32.345166 37.684704 32.443004 38 32.5 38 C 32.556996 38 32.654834 37.684704 32.755859 37.355469 C 32.881259 36.946802 33.315158 36.040317 33.634766 35.693359 C 33.898952 35.406557 34.104927 35.266353 34.498047 35.103516 C 34.782343 34.985757 35.015625 34.851388 35.015625 34.804688 C 35.015625 34.757982 34.846851 34.666806 34.640625 34.603516 C 34.434393 34.540225 34.200964 34.432041 34.121094 34.363281 C 33.976873 34.23913 33.974551 34.19415 33.994141 27.943359 L 34.015625 21.650391 L 34.201172 21.255859 C 34.303451 21.039502 34.587114 20.749295 34.710938 20.609375 C 34.834759 20.469456 34.9375 20.314265 34.9375 20.265625 C 34.9375 20.216982 34.821132 20.049869 34.679688 19.894531 C 34.538236 19.739193 34.246444 19.448562 34.152344 19.248047 L 33.980469 18.882812 L 33.980469 16.138672 C 33.890005 13.674289 33.990626 13.184317 34.097656 13.078125 C 34.202253 12.974345 34.469958 12.963204 35.574219 12.990234 C 36.540059 13.013884 36.910986 12.90374 37.173828 13 C 37.625516 13.165428 38.202642 14.045059 38.511719 14.582031 C 38.958287 15.357876 38.972751 15.298672 38.994141 12.609375 C 39.008851 10.759878 38.994288 10.04321 38.923828 10 C 38.866231 9.964683 38.729258 10.226397 38.546875 10.400391 C 38.389566 10.550456 38.191359 10.909555 38.105469 10.953125 C 37.997593 11.007825 35.232027 10.999315 32.5 11 C 29.767973 10.999315 27.002407 11.007825 26.894531 10.953125 C 26.808641 10.909555 26.610434 10.550456 26.453125 10.400391 C 26.270742 10.226397 26.133769 9.964683 26.076172 10 z"/>
</svg>
